CSETWebApi/CSETWeb_Api/CSETWeb_ApiCore/Diagram/src/main/webapp/img/lib/mscae/Database_General.svg

<svg xmlns="http://www.w3.org/2000/svg" width="37.486" height="49.688"><path d="M0 6.788V42.9c0 3.75 8.392 6.79 18.743 6.79v-42.9H0z" fill="#3999c6"/><path d="M18.486 49.687h.257c10.35 0 18.743-3.038 18.743-6.788V6.788h-19v42.9z" fill="#59b4d9"/><path d="M37.486 6.788c0 3.75-8.392 6.788-18.743 6.788S0 10.537 0 6.788 8.392 0 18.743 0s18.743 3.04 18.743 6.788" fill="#fff"/><path d="M33.654 6.397c0 2.475-6.676 4.48-14.91 4.48S3.83 8.872 3.83 6.397s6.677-4.48 14.912-4.48 14.91 2.005 14.91 4.48" fill="#7fba00"/><path d="M30.53 9.134c1.952-.757 3.125-1.705 3.125-2.735 0-2.475-6.676-4.48-14.912-4.48S3.832 3.924 3.832 6.4c0 1.03 1.173 1.978 3.125 2.735 2.726-1.058 6.986-1.74 11.786-1.74s9.06.683 11.787 1.74" fill="#b8d432"/><path d="M30.857 36.068c-1.003.836-2.362 1.256-4.128 1.256h-5.9V21.96h5.587c1.76 0 3.107.32 4.034.986.868.624 1.303 1.497 1.303 2.612 0 .89-.317 1.645-.964 2.3-.55.55-1.213.93-2.03 1.153v.036c1.095.135 1.99.552 2.655 1.253.623.665.944 1.48.944 2.424.004 1.405-.508 2.505-1.512 3.333m-14.355-.905c-1.474 1.442-3.464 2.16-5.947 2.16H5.117V21.96h5.438c5.455 0 8.183 2.483 8.183 7.48 0 2.39-.738 4.3-2.236 5.722" fill="#fff"/><path d="M10.27 24.765H8.567v9.754h1.724c1.515 0 2.69-.474 3.558-1.383.832-.91 1.253-2.12 1.253-3.654 0-1.44-.42-2.573-1.234-3.413-.853-.868-2.046-1.304-3.597-1.304" fill="#3999c6"/><path d="M27.485 27.628c.416-.362.624-.836.624-1.424 0-1.14-.832-1.706-2.52-1.706h-1.302v3.64h1.533c.7 0 1.27-.175 1.665-.5m.57 3.602c-.456-.34-1.076-.53-1.877-.53h-1.893v4.052h1.875c.797 0 1.44-.2 1.913-.568.435-.38.66-.87.66-1.515.004-.607-.223-1.1-.68-1.44" fill="#59b4d9"/></svg>

<?xml version="1.0" encoding="UTF-8" standalone="no"?>
<svg
   xmlns:dc="http://purl.org/dc/elements/1.1/"
   xmlns:cc="http://creativecommons.org/ns#"
   xmlns:rdf="http://www.w3.org/1999/02/22-rdf-syntax-ns#"
   xmlns:svg="http://www.w3.org/2000/svg"
   xmlns="http://www.w3.org/2000/svg"
   xmlns:sodipodi="http://sodipodi.sourceforge.net/DTD/sodipodi-0.dtd"
   xmlns:inkscape="http://www.inkscape.org/namespaces/inkscape"
   version="1.1"
   id="Layer_1"
   x="0px"
   y="0px"
   width="37.486"
   height="49.688"
   viewBox="0 0 37.486 49.688"
   enable-background="new 0 0 50 50"
   xml:space="preserve"
   inkscape:version="0.91 r13725"
   sodipodi:docname="Azure Database General_COLOR.svg"><metadata
     id="metadata25"><rdf:RDF><cc:Work
         rdf:about=""><dc:format>image/svg+xml</dc:format><dc:type
           rdf:resource="http://purl.org/dc/dcmitype/StillImage" /><dc:title></dc:title></cc:Work></rdf:RDF></metadata><defs
     id="defs23" /><sodipodi:namedview
     pagecolor="#ffffff"
     bordercolor="#666666"
     borderopacity="1"
     objecttolerance="10"
     gridtolerance="10"
     guidetolerance="10"
     inkscape:pageopacity="0"
     inkscape:pageshadow="2"
     inkscape:window-width="1920"
     inkscape:window-height="1018"
     id="namedview21"
     showgrid="false"
     fit-margin-top="0"
     fit-margin-left="0"
     fit-margin-right="0"
     fit-margin-bottom="0"
     inkscape:zoom="10.363697"
     inkscape:cx="23.355131"
     inkscape:cy="16.056862"
     inkscape:window-x="-8"
     inkscape:window-y="-8"
     inkscape:window-maximized="1"
     inkscape:current-layer="Layer_1" /><path
     d="M 0,6.788 0,42.899 C 0,46.648 8.392,49.688 18.743,49.688 L 18.743,6.788 C 18.743,6.788 0,6.788 0,6.788 Z"
     id="path3"
     inkscape:connector-curvature="0"
     style="fill:#3999c6" /><path
     d="M 18.486,49.687 18.743,49.687 C 29.094,49.687 37.486,46.649 37.486,42.899 L 37.486,6.788 18.486,6.788 18.486,49.687 Z"
     id="path5"
     inkscape:connector-curvature="0"
     style="fill:#59b4d9" /><path
     d="M 37.486,6.788 C 37.486,10.537 29.094,13.576 18.743,13.576 8.392,13.576 0,10.537 0,6.788 0,3.039 8.392,0 18.743,0 29.094,0 37.486,3.039 37.486,6.788"
     id="path7"
     inkscape:connector-curvature="0"
     style="fill:#ffffff" /><path
     d="M 33.654,6.397 C 33.654,8.872 26.978,10.876 18.743,10.876 10.508,10.876 3.831,8.872 3.831,6.397 3.831,3.923 10.508,1.918 18.743,1.918 26.978,1.918 33.654,3.923 33.654,6.397"
     id="path9"
     inkscape:connector-curvature="0"
     style="fill:#7fba00" /><path
     d="M 30.53,9.134 C 32.482,8.377 33.655,7.429 33.655,6.399 33.655,3.924 26.979,1.919 18.743,1.919 10.508,1.919 3.832,3.924 3.832,6.399 3.832,7.429 5.005,8.377 6.957,9.134 9.683,8.076 13.943,7.393 18.743,7.393 23.544,7.393 27.802,8.076 30.53,9.134"
     id="path11"
     inkscape:connector-curvature="0"
     style="fill:#b8d432" /><path
     d="M 30.857,36.068 C 29.854,36.904 28.495,37.324 26.729,37.324 L 20.839,37.324 20.839,21.961 26.426,21.961 C 28.185,21.961 29.533,22.282 30.46,22.947 31.328,23.571 31.763,24.444 31.763,25.559 31.763,26.448 31.446,27.204 30.799,27.869 30.248,28.419 29.586,28.799 28.77,29.022 L 28.77,29.058 C 29.865,29.193 30.759,29.61 31.425,30.311 32.048,30.976 32.369,31.792 32.369,32.735 32.373,34.14 31.861,35.24 30.857,36.068 M 16.502,35.163 C 15.028,36.605 13.038,37.324 10.555,37.324 L 5.117,37.324 5.117,21.961 10.555,21.961 C 16.01,21.961 18.738,24.444 18.738,29.441 18.738,31.83 18,33.742 16.502,35.163"
     id="path13"
     inkscape:connector-curvature="0"
     style="fill:#ffffff" /><path
     d="M 10.271,24.765 8.567,24.765 8.567,34.519 10.291,34.519 C 11.806,34.519 12.98,34.045 13.849,33.136 14.681,32.227 15.102,31.015 15.102,29.482 15.102,28.043 14.681,26.909 13.868,26.069 13.015,25.201 11.822,24.765 10.271,24.765"
     id="path15"
     inkscape:connector-curvature="0"
     style="fill:#3999c6" /><path
     d="M 27.485,27.628 C 27.901,27.266 28.109,26.792 28.109,26.204 28.109,25.065 27.277,24.498 25.589,24.498 L 24.287,24.498 24.287,28.138 25.82,28.138 C 26.521,28.138 27.089,27.963 27.485,27.628"
     id="path17"
     inkscape:connector-curvature="0"
     style="fill:#59b4d9" /><path
     d="M 28.054,31.241 C 27.598,30.902 26.978,30.711 26.177,30.711 L 24.284,30.711 24.284,34.763 26.159,34.763 C 26.956,34.763 27.598,34.574 28.072,34.195 28.507,33.815 28.733,33.326 28.733,32.68 28.737,32.073 28.51,31.581 28.054,31.241"
     id="path19"
     inkscape:connector-curvature="0"
     style="fill:#59b4d9" /></svg>
